html-practice-pages/web-app-images/notification.svg

<svg xmlns="http://www.w3.org/2000/svg" viewBox="0 0 640 640"><!--!Font Awesome Free 7.2.0 by @fontawesome - https://fontawesome.com License - https://fontawesome.com/license/free Copyright 2026 Fonticons, Inc.--><path d="M320 64c-13.3 0-24 10.7-24 24v9.7c-81.4 11.6-144 81.7-144 166.3v14.5c0 37.7-10 74.7-29 107.3l-21.9 37.4c-3.3 5.8-5.1 12.3-5.1 19 0 20.9 16.9 37.8 37.8 37.8h372.4c20.9 0 37.8-16.9 37.8-37.8 0-6.7-1.8-13.3-5.1-19L517 385.7c-19-32.6-29-69.6-29-107.3v-14.5c0-84.6-62.6-154.7-144-166.3v-9.7c0-13.3-10.7-24-24-24zm168.4 368H151.5l12.9-22.1C187.7 370 200 324.6 200 278.5V264c0-66.3 53.7-120 120-120s120 53.7 120 120v14.5c0 46.2 12.3 91.5 35.5 131.4l12.9 22.1zm-236.3 96c9.9 28 36.6 48 67.9 48 31.3 0 58-20 67.9-48H252.1z"/></svg>

<svg xmlns="http://www.w3.org/2000/svg" viewBox="0 0 640 640"><!--!Font Awesome Free 7.2.0 by @fontawesome - https://fontawesome.com License - https://fontawesome.com/license/free Copyright 2026 Fonticons, Inc.--><path d="M320 64C306.7 64 296 74.7 296 88L296 97.7C214.6 109.3 152 179.4 152 264L152 278.5C152 316.2 142 353.2 123 385.8L101.1 423.2C97.8 429 96 435.5 96 442.2C96 463.1 112.9 480 133.8 480L506.2 480C527.1 480 544 463.1 544 442.2C544 435.5 542.2 428.9 538.9 423.2L517 385.7C498 353.1 488 316.1 488 278.4L488 263.9C488 179.3 425.4 109.2 344 97.6L344 87.9C344 74.6 333.3 63.9 320 63.9zM488.4 432L151.5 432L164.4 409.9C187.7 370 200 324.6 200 278.5L200 264C200 197.7 253.7 144 320 144C386.3 144 440 197.7 440 264L440 278.5C440 324.7 452.3 370 475.5 409.9L488.4 432zM252.1 528C262 556 288.7 576 320 576C351.3 576 378 556 387.9 528L252.1 528z"/></svg>
